images/icons/makerworld.svg

<svg xmlns="http://www.w3.org/2000/svg" viewBox="0 0 28 28">
	<path d="M27.2867 2.68142L20.8492 0.160571L20.4386 0L20.0257 0.160571L13.9977 2.51861L7.96978 0.160571L7.56139 0L7.15188 0.160571L0.713275 2.68142L0 2.96102V25.0401L0.713275 25.3186L7.15188 27.8394L7.56139 28L7.97091 27.8394L14 25.4814L20.028 27.8394L20.4386 28L20.8492 27.8394L27.2867 25.3186L28 25.0401V2.96102L27.2867 2.68142ZM20.4386 1.20372L26.8772 3.7257V12.8356L20.4386 10.3158V1.20372ZM14.4095 13.8787L20.4386 11.5207L26.4677 13.8787L26.7748 13.9989L26.4677 14.119L20.4386 16.4771L14.4095 14.119L14.1024 13.9989L14.4095 13.8787ZM7.56139 1.20372L14 3.7257V12.8356L7.56139 10.3147V1.20372ZM1.53343 13.8787L7.56139 11.5207L13.5905 13.8787L13.8976 13.9989L13.5905 14.119L7.56139 16.4771L1.53343 14.119L1.22629 13.9989L1.53343 13.8787ZM1.12504 24.2732V15.1588L7.56365 17.6785V26.7895L1.12504 24.2732ZM14.0022 24.2732V15.1588L20.4409 17.6785V26.7895L14.0022 24.2732Z" fill="#FFFFFF"/>
</svg>

<svg xmlns="http://www.w3.org/2000/svg" width="98" height="28" fill="none"><g fill="currentColor" clip-path="url(#a)"><path d="m61.508 20.18.04-.005h-.033l-.007.006ZM59.72 22.172c0-.05 0-.1.009-.15v.01a1.892 1.892 0 0 0-.008.14ZM61.57 20.173ZM77.325 6.874l.041-.006h-.033l-.008.006ZM75.538 8.865c0-.05 0-.1.008-.15v.01a1.818 1.818 0 0 0-.008.14ZM77.387 6.865ZM46.435 22.824l-2.107-6.57h-2.076l-2.11 6.574-2.05-7.183H36l2.855 10.54h2.004l2.428-6.9 2.458 6.9h1.975l2.855-10.54h-2.088l-2.052 7.179ZM67.248 26.201h2.042V15.645h-2.042v10.556ZM54.824 18.189c-.82 0-1.62.238-2.301.686a4.086 4.086 0 0 0-1.526 1.827 4.008 4.008 0 0 0-.235 2.353c.16.79.554 1.515 1.133 2.085.58.569 1.317.957 2.12 1.114a4.207 4.207 0 0 0 2.393-.232 4.127 4.127 0 0 0 1.859-1.5c.455-.67.698-1.456.698-2.262 0-1.08-.436-2.115-1.213-2.879a4.178 4.178 0 0 0-2.928-1.192Zm0 6.355c-.46 0-.91-.133-1.292-.383a2.292 2.292 0 0 1-.857-1.024 2.248 2.248 0 0 1-.134-1.32c.09-.443.31-.85.635-1.17.325-.32.739-.538 1.19-.627a2.36 2.36 0 0 1 1.342.13c.425.173.788.465 1.043.841a2.257 2.257 0 0 1-.286 2.885 2.346 2.346 0 0 1-1.641.673v-.005ZM77.36 15.645v3.277a4.2 4.2 0 0 0-4.286-.272 4.114 4.114 0 0 0-1.627 1.5 4.02 4.02 0 0 0 0 4.222 4.114 4.114 0 0 0 1.626 1.499 4.2 4.2 0 0 0 4.286-.272v.61h2.042V15.644h-2.042Zm-2.367 8.904c-.46 0-.909-.133-1.29-.384a2.293 2.293 0 0 1-.857-1.025 2.248 2.248 0 0 1-.133-1.32c.09-.443.31-.85.636-1.17a2.36 2.36 0 0 1 2.532-.496c.424.174.787.467 1.042.842.255.376.392.818.392 1.27 0 .605-.246 1.185-.681 1.613a2.346 2.346 0 0 1-1.641.67Z"/><path d="M62.772 22.593c0-.066 0-.09.009-.157a2.11 2.11 0 0 1 .587-1.294c.34-.352.794-.58 1.284-.643h.065a1.64 1.64 0 0 1 .202-.01h.132c.066 0 .13.009.195.018l.12.018v-2.16a4.013 4.013 0 0 0-2.597 1.047v-.785h-2.036v7.558h2.042V22.66l-.003-.066ZM55.95 11.645v.59h1.819V4.373H55.95v.546a4.2 4.2 0 0 0-4.267-.234 4.114 4.114 0 0 0-1.611 1.498 4.02 4.02 0 0 0 0 4.202 4.114 4.114 0 0 0 1.611 1.499 4.2 4.2 0 0 0 4.267-.234v-.004Zm-4.654-3.363c0-.452.136-.894.391-1.27a2.315 2.315 0 0 1 1.043-.841 2.36 2.36 0 0 1 1.342-.13c.45.088.865.305 1.19.625.325.32.546.726.635 1.17.09.443.044.902-.132 1.32a2.293 2.293 0 0 1-.856 1.024 2.35 2.35 0 0 1-2.932-.285 2.267 2.267 0 0 1-.68-1.613ZM38.06 5.463 41.16 11.6h1.393l3.1-6.137v6.746h2.06V1.67h-2.199l-3.657 6.898-3.659-6.899H36V12.21h2.06V5.463ZM67.19 4.37h-2.462l-2.825 3.57V1.668h-2.04V12.23h2.04V8.142l2.915 4.087h2.462l-3.013-4.185L67.19 4.37ZM79.406 8.599a2.11 2.11 0 0 1 .596-1.451c.34-.352.793-.58 1.283-.643h.065c.068-.007.135-.01.203-.01h.132c.065 0 .13.01.195.02l.12.016v-2.16a4.016 4.016 0 0 0-2.603 1.046v-.784h-2.03v7.596h2.042v-3.63h-.004ZM71.732 10.565a2.353 2.353 0 0 1-1.396-.461 2.287 2.287 0 0 1-.835-1.193h6.317c.035-.208.054-.418.055-.63 0-1.008-.38-1.98-1.067-2.73a4.195 4.195 0 0 0-5.524-.557 4.067 4.067 0 0 0-1.608 2.46 4.014 4.014 0 0 0 .484 2.887 4.13 4.13 0 0 0 2.326 1.823 4.208 4.208 0 0 0 2.97-.18 4.106 4.106 0 0 0 2.08-2.091h-2.162a2.355 2.355 0 0 1-1.64.672Zm0-4.567c.459 0 .907.135 1.29.385.38.25.679.607.855 1.024h-4.29c.177-.417.474-.773.856-1.024.381-.25.83-.384 1.289-.385ZM27.287 2.681 20.849.161 20.44 0l-.413.16-6.028 2.359L7.97.16 7.56 0l-.41.16L.714 2.682 0 2.961v22.08l.713.278 6.439 2.52.41.161.409-.16L14 25.48l6.028 2.358.41.161.411-.16 6.438-2.521.713-.279V2.961l-.713-.28Zm-6.848-1.477 6.438 2.522v9.11l-6.438-2.52V1.204Zm-6.03 12.675 6.03-2.358 6.029 2.358.307.12-.307.12-6.03 2.358-6.028-2.358-.308-.12.307-.12ZM7.561 1.204 14 3.726v9.11l-6.439-2.521V1.204ZM1.533 13.879l6.028-2.358 6.03 2.358.307.12-.307.12-6.03 2.358-6.028-2.358-.307-.12.307-.12Zm-.408 10.394V15.16l6.439 2.52v9.11l-6.439-2.516Zm12.877 0V15.16l6.439 2.52v9.11l-6.439-2.516Z"/></g><path fill="currentColor" fill-rule="evenodd" d="M86 0v28h12V0H86Zm2.25 22.206v2.156h7.399V21.77c0-.524-.085-.976-.253-1.355a1.98 1.98 0 0 0-.74-.881c-.32-.205-.704-.308-1.153-.308-.388 0-.698.057-.931.17-.236.111-.415.26-.537.446a1.808 1.808 0 0 0-.263.625h-.05a1.16 1.16 0 0 0-.284-.578 1.38 1.38 0 0 0-.556-.36 2.137 2.137 0 0 0-.76-.128c-.695 0-1.18.237-1.457.71-.277.475-.415 1.172-.415 2.095Zm2.93-.165v.852h-1.645v-.772c0-.42.063-.726.188-.919.121-.196.324-.293.607-.293.28 0 .493.082.638.246.141.164.212.46.212.886Zm3.173.852h-1.928v-.91c0-.312.039-.556.117-.733a.759.759 0 0 1 .323-.384.986.986 0 0 1 .481-.114c.307 0 .552.087.734.26.182.174.273.482.273.924v.957Zm-4.165-8.384c-.202.354-.303.775-.303 1.265 0 .499.111.936.334 1.312.219.376.55.67.992.881.438.208.988.313 1.65.313.65 0 1.19-.116 1.619-.346.428-.234.747-.554.956-.962.21-.41.314-.88.314-1.411 0-.408-.032-.754-.096-1.038a3.296 3.296 0 0 0-.304-.824h-1.194c.148.297.26.586.334.867.074.281.111.59.111.928 0 .408-.123.727-.37.957-.249.228-.591.35-1.026.365V13.4h-.75c-.55 0-1.015.096-1.396.289a2.013 2.013 0 0 0-.87.82Zm1.083 1.956a.935.935 0 0 1-.288-.7c0-.228.052-.414.157-.56a.94.94 0 0 1 .425-.331c.179-.076.383-.115.612-.119v2.028c-.412-.029-.713-.134-.906-.318Zm3.25-6.47c0-.158-.018-.311-.051-.46a4.256 4.256 0 0 0-.127-.45h1.149c.074.155.135.348.182.578.05.228.076.477.076.749 0 .315-.054.6-.162.852-.111.25-.302.447-.572.593-.273.142-.653.213-1.139.213H91.15v.691h-.653l-.516-.796-1.195-.416v-.924h1.205V9.142h1.159v1.483h2.727c.217 0 .378-.057.486-.17a.663.663 0 0 0 .157-.46Zm-4.15-5.789c-.331.38-.496.924-.496 1.635 0 .372.045.734.136 1.084.091.348.216.662.375.943l1.042-.478a5.618 5.618 0 0 1-.293-.74 2.492 2.492 0 0 1-.117-.752c0-.26.07-.462.208-.607.138-.145.356-.218.653-.218h.247l.03.92c.031.789.19 1.38.477 1.776.283.394.725.592 1.326.592.408 0 .745-.071 1.012-.213a1.38 1.38 0 0 0 .587-.583c.128-.25.192-.53.192-.843 0-.294-.03-.543-.091-.749a1.553 1.553 0 0 0-.284-.544 2.782 2.782 0 0 0-.495-.465v-.038l.769-.279V3.638h-3.77c-.675 0-1.178.19-1.509.568Zm2.677 1.426-.02-.559h.465c.36 0 .64.108.835.322.196.212.293.473.293.782a.819.819 0 0 1-.146.507c-.101.13-.27.194-.506.194a.844.844 0 0 1-.653-.27c-.166-.183-.255-.508-.268-.976Z" clip-rule="evenodd"/><defs><clipPath id="a"><path fill="currentColor" d="M0 0h82v28H0z"/></clipPath></defs></svg>
